Numix/32/actions/geany-save-all.svg

<?xml version="1.0" encoding="UTF-8" standalone="no"?>
<svg
   xmlns:dc="http://purl.org/dc/elements/1.1/"
   xmlns:cc="http://creativecommons.org/ns#"
   xmlns:rdf="http://www.w3.org/1999/02/22-rdf-syntax-ns#"
   xmlns:svg="http://www.w3.org/2000/svg"
   xmlns="http://www.w3.org/2000/svg"
   xmlns:sodipodi="http://sodipodi.sourceforge.net/DTD/sodipodi-0.dtd"
   xmlns:inkscape="http://www.inkscape.org/namespaces/inkscape"
   width="32"
   height="32"
   viewBox="0 0 32 32"
   id="svg2"
   version="1.1"
   inkscape:version="0.91 r13725"
   sodipodi:docname="geany-save-all.svg">
  <metadata
     id="metadata16">
    <rdf:RDF>
      <cc:Work
         rdf:about="">
        <dc:format>image/svg+xml</dc:format>
        <dc:type
           rdf:resource="http://purl.org/dc/dcmitype/StillImage" />
        <dc:title />
      </cc:Work>
    </rdf:RDF>
  </metadata>
  <defs
     id="defs14" />
  <sodipodi:namedview
     pagecolor="#ffffff"
     bordercolor="#666666"
     borderopacity="1"
     objecttolerance="10"
     gridtolerance="10"
     guidetolerance="10"
     inkscape:pageopacity="0"
     inkscape:pageshadow="2"
     inkscape:window-width="1366"
     inkscape:window-height="704"
     id="namedview12"
     showgrid="true"
     inkscape:zoom="31.055664"
     inkscape:cx="16.894815"
     inkscape:cy="9.5765925"
     inkscape:window-x="0"
     inkscape:window-y="27"
     inkscape:window-maximized="1"
     inkscape:current-layer="svg2">
    <inkscape:grid
       type="xygrid"
       id="grid4138" />
  </sodipodi:namedview>
  <path
     style="fill:#268bd2;fill-rule:evenodd"
     d="M 8.222656 0 L 23.777344 0 C 28.445312 0 30 1.601562 30 6.398438 L 30 25.601562 C 30 30.398438 28.445312 32 23.777344 32 L 8.222656 32 C 3.554688 32 2 30.398438 2 25.601562 L 2 6.398438 C 2 1.601562 3.554688 0 8.222656 0 Z "
     id="path4" />
  <path
     inkscape:connector-curvature="0"
     id="path8"
     d="M 8.222656,0 23.777344,0 C 28.445312,0 30,1.601562 30,6.398438 l 0,12.800781 C 30,24 28.445312,26 23.777344,26 L 8.222656,26 C 3.554688,26 2,24 2,19.199219 L 2,6.398438 C 2,1.601562 3.554688,0 8.222656,0 Z"
     style="fill:#ffffff;fill-opacity:0.30199998;fill-rule:evenodd"
     sodipodi:nodetypes="sssssssss" />
  <path
     inkscape:connector-curvature="0"
     id="path10"
     d="M 16,15.999889 10.5,22.5 5,15.999889 l 3,0 L 8,10 l 5,0 0,5.999889 z"
     style="fill:#ffffff;fill-opacity:0.9020004"
     sodipodi:nodetypes="cccccccc" />
  <path
     inkscape:connector-curvature="0"
     id="path10-3"
     d="M 27,9.0003466 21.5,15.5 16,9.0003466 l 3,0 0,-5.999889 5,0 0,5.999889 z"
     style="fill:#ffffff;fill-opacity:0.9020004"
     sodipodi:nodetypes="cccccccc" />
</svg>

<svg xmlns="http://www.w3.org/2000/svg" viewBox="0 0 32 32">
 <path d="m 8.223 0 l 15.555 0 c 4.668 0 6.223 1.602 6.223 6.398 l 0 19.2 c 0 4.797 -1.555 6.398 -6.223 6.398 l -15.555 0 c -4.668 0 -6.223 -1.602 -6.223 -6.398 l 0 -19.2 c 0 -4.797 1.555 -6.398 6.223 -6.398 Z" style="fill:#268bd2;fill-rule:evenodd"/>
 <path d="m 8.223 0 15.555 0 c 4.668 0 6.223 1.602 6.223 6.398 l 0 12.801 c 0 4.801 -1.555 6.801 -6.223 6.801 l -15.555 0 c -4.668 0 -6.223 -2 -6.223 -6.801 l 0 -12.801 c 0 -4.797 1.555 -6.398 6.223 -6.398" style="fill:#fff;fill-opacity:0.302;fill-rule:evenodd"/>
 <path d="m 16 16 -5.5 6.5 -5.5 -6.5 l 3 0 l 0 -6 l 5 0 0 6 z" style="fill:#fff;fill-opacity:0.902"/>
 <path d="m 27 9 -5.5 6.5 -5.5 -6.5 l 3 0 0 -6 5 0 0 6 z" style="fill:#fff;fill-opacity:0.902"/>
</svg>
